X:1
T:Brännvinsdans
R:Engelska
C:Efter Nils "Rusken" Mårtensson
O:Skåne
Z:Patrik Månsson 2009-06-13
D:+: "Trallarevann" (2004)
M:4/4
L:1/8
K:A
(3(efg) |: ae ce Ac ea | fd BG E2 (3(ABc) |[1 d2 fe dc BA | G2 E2 E2  (3(efg) :|[2 d2 fe dB GB | A2 A2 A2 e2 |]
|: ce Ae ce Ae | df Bf df ed |[1 ce dc BA GF | Ee1/2e1/2 ee e2 e2 :|[2 ce dc BA GB | A2 A2 A2 z2 |]

